X: 40219
T: Tintern Abbey
R: hornpipe
M: 4/4
K: Gmajor
|:BABc dB G2|BABc dedB|AGAB AF D2|AGAB cB A2|
BABc dB G2|BABc dedB|AGAB AFED|GBAF G4:|
|:edef gagd|edef gage|d^cde dB G2|d^cde dB G2|
edef gage|d^cde dBGB|AGAB AFED|GBAF G4:|

